X: 34824
T: Road To Tralee, The
R: slide
M: 12/8
K: Dmajor
|:A3 A2 F D3 DEF|A3 A2 F G3 B3|
A2 B A2 F D3 DEF|E3 E2 F G3 B3:|
|:A2 A d2 A B2 B d2 B|A2 A d2 A B3 d3|
A2 A d2A B2 B d2 F|E2 E E2 F G3 B3:|

